src/assets/images/Usuario/metodosdepago/pse.svg

<?xml version="1.0" encoding="UTF-8"?>
<svg width="103px" height="46px" viewBox="0 0 103 46" version="1.1" xmlns="http://www.w3.org/2000/svg" xmlns:xlink="http://www.w3.org/1999/xlink">
    <!-- Generator: Sketch 52.4 (67378) - http://www.bohemiancoding.com/sketch -->
    <title>Grupo_310 Clipped</title>
    <desc>Created with Sketch.</desc>
    <defs>
        <filter x="-8.1%" y="-9.0%" width="116.2%" height="118.0%" filterUnits="objectBoundingBox" id="filter-1">
            <feOffset dx="0" dy="2" in="SourceAlpha" result="shadowOffsetOuter1"></feOffset>
            <feGaussianBlur stdDeviation="2" in="shadowOffsetOuter1" result="shadowBlurOuter1"></feGaussianBlur>
            <feColorMatrix values="0 0 0 0 0.503594541   0 0 0 0 0.597691893   0 0 0 0 0.834980867  0 0 0 0.271625906 0" type="matrix" in="shadowBlurOuter1" result="shadowMatrixOuter1"></feColorMatrix>
            <feMerge>
                <feMergeNode in="shadowMatrixOuter1"></feMergeNode>
                <feMergeNode in="SourceGraphic"></feMergeNode>
            </feMerge>
        </filter>
    </defs>
    <g id="Page-1" stroke="none" stroke-width="1" fill="none" fill-rule="evenodd">
        <g id="Metodos-de-pago" transform="translate(-497.000000, -1184.000000)" fill="#00D0D2">
            <g id="tarj" filter="url(#filter-1)" transform="translate(474.000000, 1138.000000)">
                <g id="Capa_2">
                    <g id="Layer_1">
                        <g id="Grupo_310-Clipped" transform="translate(26.000000, 47.000000)">
                            <g id="Grupo_310" transform="translate(0.498710, 0.514543)">
                                <path d="M72.7662029,28.8495143 L62.3235217,28.8495143 C62.1042459,28.8614748 61.896367,28.7500566 61.7831691,28.559898 C61.6699713,28.3697394 61.6699713,28.1319463 61.7831691,27.9417877 C61.896367,27.7516291 62.1042459,27.6402109 62.3235217,27.6521714 L72.7058406,27.6521714 C74.5985866,27.250635 75.9571927,25.5683793 75.9671304,23.6139714 C76.0878551,20.3862 74.2597391,20.0655143 73.9631014,20.0324 L67.2577101,20.0324 C65.2737441,19.7022481 63.8847934,17.8714344 64.0843768,15.8495429 C64.132487,13.3083783 65.9192632,11.141306 68.3838986,10.6349143 C68.4257643,10.6307655 68.4679313,10.6307655 68.5097971,10.6349143 L77.9107971,10.6349143 C78.2218721,10.6588667 78.4621864,10.9209276 78.4621864,11.2362 C78.4621864,11.5514724 78.2218721,11.8135333 77.9107971,11.8374857 L68.5805072,11.8374857 C66.6848903,12.2467863 65.3150341,13.9173526 65.2692029,15.8756857 L65.2692029,15.9227429 C65.1457408,17.3074905 66.0567791,18.5703266 67.3991304,18.8751429 L74.0165652,18.8751429 C74.0458841,18.8751429 77.3192464,19.1278571 77.1467826,23.7011143 C77.0982519,26.2270731 75.3063393,28.3737687 72.8507101,28.8477714 L72.7662029,28.8495143 Z" id="Trazado_329"></path>
                                <path d="M92.4425942,28.9122571 L82.7449565,28.9122571 C81.4928696,28.7728286 79.0594058,27.8822286 78.986971,25.4823143 C79.31368,21.9073203 79.8830006,18.3592267 80.690913,14.8630857 C80.6950322,14.8350863 80.7037771,14.8079853 80.7167826,14.7829143 C80.7754203,14.6225714 82.1896232,10.8632286 85.3094928,10.8632286 L92.2442609,10.8632286 C92.2979992,10.8550869 92.3526385,10.8550869 92.4063768,10.8632286 C92.5271014,10.9015714 95.371029,11.7573143 95.371029,14.2391429 C95.2877032,16.1654734 95.0768257,18.0840033 94.7398116,19.9818571 C94.6913611,20.2655579 94.4486628,20.4733699 94.1637826,20.4750857 L80.7547246,20.5883714 C80.4307519,22.1886911 80.2312343,23.812183 80.158,25.4439714 C80.1993913,27.3001143 82.5121304,27.6626286 82.813942,27.7096857 L92.4167246,27.7096857 C92.6360005,27.6977252 92.8438794,27.8091434 92.9570772,27.999302 C93.0702751,28.1894606 93.0702751,28.4272537 92.9570772,28.6174123 C92.8438794,28.8075709 92.6360005,28.9189891 92.4167246,28.9070286 L92.4425942,28.9122571 Z M81.8550435,15.1628571 C81.7877826,15.4713429 81.3911159,17.3100571 81.0203188,19.3823143 L93.7033043,19.2725143 C93.9886497,17.6012202 94.1655152,15.9128543 94.2327681,14.2182286 C94.2327681,12.8239429 92.5633188,12.1546857 92.195971,12.0292 L85.3405362,12.0292 C83.1536957,12.0588286 81.9930145,14.8352 81.8550435,15.1646 L81.8550435,15.1628571 Z" id="Trazado_330" fill-rule="nonzero"></path>
                                <path d="M44.2458696,36.7725429 C44.2109225,36.7766983 44.1756138,36.7766983 44.1406667,36.7725429 C43.9855098,36.7445381 43.8477569,36.6552927 43.7578071,36.5245012 C43.6678572,36.3937096 43.6331042,36.2321231 43.6612174,36.0754 C43.6612174,36.0754 44.6045942,30.7980286 45.5583188,25.5276286 C46.0343188,22.8906857 46.5103188,20.2502571 46.8742174,18.2703714 C47.0466812,17.2786857 47.2087971,16.4525714 47.3174493,15.8739429 C47.3697915,15.5384907 47.4406117,15.2062506 47.5295797,14.8787714 C48.2853973,12.939595 49.8591534,11.4431788 51.8204783,10.7987429 C51.8743399,10.7924927 51.9287325,10.7924927 51.9825942,10.7987429 L58.6155507,10.7987429 C59.1915797,10.7987429 62.2648841,11.9629714 61.9044348,14.4186571 C61.9023282,14.4412643 61.9023282,14.4640214 61.9044348,14.4866286 L60.2349855,24.6875714 C60.2373814,24.7101639 60.2373814,24.7329504 60.2349855,24.7555429 C59.6714196,26.6245088 58.2633501,28.1121328 56.4407826,28.7641143 C56.3908213,28.7814079 56.338376,28.7902411 56.2855652,28.7902571 L50.1941449,28.9645429 L50.1182609,28.9645429 C48.6927918,28.7292035 47.4131229,27.9445447 46.5482609,26.7755143 C45.8928986,30.4198286 45.2375362,34.0746 44.8408696,36.3054571 C44.7722105,36.5797909 44.5240284,36.7689812 44.2441449,36.7603429 L44.2458696,36.7725429 Z M46.8466232,25.0378857 C47.47357,26.4238385 48.7124751,27.428277 50.1872464,27.7462857 L56.157942,27.572 C57.5496274,27.0186812 58.6220407,25.8632863 59.0794783,24.4244 L60.7196087,14.2984 C60.8920725,13.1672857 59.1795072,11.9612286 58.4775797,11.9647143 L51.9946667,11.9647143 C50.4835557,12.5532293 49.2765092,13.7409107 48.6540435,15.2517429 C48.5367681,15.7240571 47.7313623,20.1666 46.8500725,25.0396286 L46.8466232,25.0378857 Z" id="Trazado_331" fill-rule="nonzero"></path>
                                <path d="M36.2349275,8.24545714 C36.2349275,9.17720885 35.4874896,9.93254286 34.5654783,9.93254286 C33.6434669,9.93254286 32.896029,9.17720885 32.896029,8.24545714 C32.896029,7.31370543 33.6434669,6.55837143 34.5654783,6.55837143 C35.4874896,6.55837143 36.2349275,7.31370543 36.2349275,8.24545714 Z" id="Trazado_332"></path>
                                <ellipse id="Elipse_5" cx="30.8368116" cy="2.56722857" rx="1.65392754" ry="1.6714"></ellipse>
                                <path d="M28.7275797,8.24545714 C28.7275797,9.17720885 27.9801418,9.93254286 27.0581304,9.93254286 C26.1361191,9.93254286 25.3886812,9.17720885 25.3886812,8.24545714 C25.3886812,7.31370543 26.1361191,6.55837143 27.0581304,6.55837143 C27.9801418,6.55837143 28.7275797,7.31370543 28.7275797,8.24545714 Z" id="Trazado_333"></path>
                                <ellipse id="Elipse_6" cx="34.3895652" cy="31.0106571" rx="1.65392754" ry="1.6714"></ellipse>
                                <ellipse id="Elipse_7" cx="30.8281884" cy="25.6740286" rx="1.65392754" ry="1.6714"></ellipse>
                                <ellipse id="Elipse_8" cx="23.5260725" cy="25.6740286" rx="1.36936232" ry="1.38382857"></ellipse>
                                <path d="M28.5447681,31.0106571 C28.546163,31.5709955 28.213041,32.0768784 27.7010333,32.2919622 C27.1890257,32.5070461 26.599203,32.3888733 26.2071247,31.992653 C25.8150465,31.5964328 25.698109,31.0003791 25.9109445,30.4829625 C26.1237799,29.9655459 26.6243744,29.6289046 27.1788551,29.6303143 C27.9324413,29.6322301 28.5428723,30.2491098 28.5447681,31.0106571 Z" id="Trazado_334"></path>
                                <ellipse id="Elipse_9" cx="23.4294928" cy="36.8666571" rx="1.36936232" ry="1.38382857"></ellipse>
                                <ellipse id="Elipse_10" cx="19.8905362" cy="31.0106571" rx="1.06065217" ry="1.07185714"></ellipse>
                                <ellipse id="Elipse_11" cx="6.85572464" cy="19.8093143" rx="1.06065217" ry="1.07185714"></ellipse>
                                <ellipse id="Elipse_12" cx="8.75110145" cy="14.1014571" rx="1.06065217" ry="1.07185714"></ellipse>
                                <path d="M13.4058986,8.24545714 C13.4058986,8.8374275 12.9310284,9.31731429 12.3452464,9.31731429 C11.7594644,9.31731429 11.2845942,8.8374275 11.2845942,8.24545714 C11.2845942,7.65348679 11.7594644,7.1736 12.3452464,7.1736 C12.9310284,7.1736 13.4058986,7.65348679 13.4058986,8.24545714 Z" id="Trazado_335"></path>
                                <path d="M17.0517826,2.69445714 C17.0517826,3.12798289 16.793363,3.5188209 16.3970244,3.68472402 C16.0006859,3.85062714 15.5444805,3.75892359 15.2411361,3.4523746 C14.9377917,3.1458256 14.8470468,2.68480074 15.0112156,2.28427517 C15.1753844,1.88374961 15.5621367,1.6226 15.9911304,1.6226 C16.5769125,1.6226 17.0517826,2.10248679 17.0517826,2.69445714 Z" id="Trazado_336"></path>
                                <ellipse id="Elipse_13" cx="16.0911594" cy="36.8666571" rx="1.06065217" ry="1.07185714"></ellipse>
                                <ellipse id="Elipse_14" cx="12.4504493" cy="31.0106571" rx="1.06065217" ry="1.07185714"></ellipse>
                                <ellipse id="Elipse_15" cx="8.70108696" cy="25.6740286" rx="1.06065217" ry="1.07185714"></ellipse>
                                <ellipse id="Elipse_16" cx="6.70050725" cy="31.0106571" rx="1" ry="1"></ellipse>
                                <ellipse id="Elipse_17" cx="3.28572464" cy="25.6740286" rx="1" ry="1"></ellipse>
                                <path d="M1.72837681,19.7117143 C1.72837681,19.9351739 1.59517516,20.1366302 1.39088358,20.2221445 C1.186592,20.3076588 0.951442222,20.2603905 0.795084216,20.1023807 C0.63872621,19.9443709 0.591952011,19.7067369 0.676572354,19.5002872 C0.761192697,19.2938374 0.960543054,19.1592286 1.18166667,19.1592286 C1.48360634,19.1592286 1.72837681,19.4065849 1.72837681,19.7117143 Z" id="Trazado_337"></path>
                                <ellipse id="Elipse_18" cx="3.13223188" cy="14.1101714" rx="1" ry="1"></ellipse>
                                <ellipse id="Elipse_19" cx="6.8264058" cy="8.29948571" rx="1" ry="1"></ellipse>
                                <ellipse id="Elipse_20" cx="16.0411449" cy="25.6740286" rx="1.36936232" ry="1.38382857"></ellipse>
                                <ellipse id="Elipse_21" cx="12.1917536" cy="19.8215143" rx="1.36936232" ry="1.38382857"></ellipse>
                                <path d="M17.3553188,14.1014571 C17.3588118,14.66226 17.0270273,15.1697437 16.5151933,15.3864783 C16.0033592,15.6032128 15.4126911,15.4863388 15.0195374,15.0905367 C14.6263836,14.6947345 14.5084906,14.0982743 14.7210155,13.5802143 C14.9335404,13.0621544 15.4344562,12.7249413 15.9894058,12.7263429 C16.7409833,12.728241 17.3505883,13.3419525 17.3553188,14.1014571 Z" id="Trazado_338"></path>
                                <ellipse id="Elipse_22" cx="19.7853333" cy="8.24545714" rx="1.36936232" ry="1.38382857"></ellipse>
                                <ellipse id="Elipse_23" cx="23.3794783" cy="2.59162857" rx="1.36936232" ry="1.38382857"></ellipse>
                                <ellipse id="Elipse_24" cx="19.6904783" cy="19.8232571" rx="1.65392754" ry="1.6714"></ellipse>
                                <ellipse id="Elipse_25" cx="23.3812029" cy="14.1014571" rx="1.65392754" ry="1.6714"></ellipse>
                                <ellipse id="Elipse_26" cx="30.8281884" cy="36.8666571" rx="1.65392754" ry="1.6714"></ellipse>
                                <rect id="Rectángulo_336" x="20.5321014" y="19.2306857" width="24.4812319" height="1.0248"></rect>
                                <rect id="Rectángulo_337" x="24.6074203" y="13.5873143" width="7.69878261" height="1.0248"></rect>
                                <polygon id="Trazado_339" points="35.6123333 20.2032 31.3748986 13.5803429 32.5562754 13.5803429 36.7937101 20.2032"></polygon>
                                <rect id="Rectángulo_338" x="32.1182174" y="25.1633714" width="3.92872464" height="1.0248"></rect>
                                <polygon id="Trazado_340" points="35.1104638 26.1881714 38.6218261 20.2014571 39.6290145 20.2014571 36.1176522 26.1881714"></polygon>
                            </g>
                        </g>
                    </g>
                </g>
            </g>
        </g>
    </g>
</svg>

<svg xmlns="http://www.w3.org/2000/svg" width="103" height="46"><title>Grupo_310 Clipped</title><desc>Created with Sketch.</desc><defs><filter id="a" width="116.2%" height="118%" x="-8.1%" y="-9%" filterUnits="objectBoundingBox"><feOffset dy="2" in="SourceAlpha" result="shadowOffsetOuter1"/><feGaussianBlur stdDeviation="2" in="shadowOffsetOuter1" result="shadowBlurOuter1"/><feColorMatrix values="0 0 0 0 0.503594541 0 0 0 0 0.597691893 0 0 0 0 0.834980867 0 0 0 0.271625906 0" in="shadowBlurOuter1" result="shadowMatrixOuter1"/><feMerge><feMergeNode in="shadowMatrixOuter1"/><feMergeNode in="SourceGraphic"/></feMerge></filter></defs><g fill="none"><g fill="#00D0D2"><g filter="url(#a)" transform="translate(-497 -1184) translate(474 1138)"><g><g><g><g transform="translate(26 47) translate(.499 .515)"><path d="M72.77 28.85H62.32c-.22 0-.42-.1-.54-.3-.1-.18-.1-.42 0-.6.12-.2.32-.3.54-.3h10.4c1.88-.4 3.24-2.08 3.25-4.04.12-3.2-1.7-3.53-2-3.57h-6.7c-2-.33-3.4-2.16-3.2-4.18.06-2.54 1.85-4.7 4.3-5.22.06 0 .1 0 .14 0h9.4c.32.03.56.3.56.6 0 .32-.24.58-.55.6H68.6c-1.9.42-3.26 2.1-3.3 4.05v.04c-.13 1.4.78 2.65 2.12 2.96h6.62c.03 0 3.3.25 3.13 4.82-.05 2.53-1.84 4.67-4.3 5.15h-.08z"/><path fill-rule="nonzero" d="M92.44 28.9h-9.7c-1.25-.13-3.68-1.02-3.75-3.42.3-3.57.88-7.12 1.7-10.62 0-.02 0-.05.02-.08.06-.16 1.47-3.92 4.6-3.92h6.92c.06 0 .1 0 .17 0 .13.04 2.97.9 2.97 3.38-.08 1.93-.3 3.84-.63 5.74-.05.3-.3.5-.58.5l-13.4.1c-.33 1.6-.53 3.23-.6 4.86.04 1.86 2.35 2.22 2.65 2.27h9.62c.22 0 .42.1.54.3.1.2.1.43 0 .62-.12.2-.32.3-.54.3h.02zM81.86 15.17c-.07.3-.47 2.15-.84 4.22l12.68-.1c.3-1.68.47-3.37.53-5.06 0-1.4-1.67-2.07-2.03-2.2h-6.86c-2.2.04-3.35 2.82-3.48 3.14z"/><path fill-rule="nonzero" d="M44.25 36.77c-.04 0-.07 0-.1 0-.16-.03-.3-.1-.4-.25-.08-.13-.12-.3-.1-.44 0 0 .95-5.28 1.9-10.55.48-2.64.96-5.28 1.32-7.26.18-1 .34-1.82.45-2.4.05-.33.12-.66.2-1 .77-1.93 2.34-3.43 4.3-4.07.05 0 .1 0 .16 0h6.64c.57 0 3.64 1.16 3.28 3.62 0 .02 0 .04 0 .07l-1.67 10.2s0 .03 0 .06c-.56 1.86-1.97 3.35-3.8 4-.04.02-.1.03-.14.03l-6.1.16h-.08c-1.43-.23-2.7-1.02-3.57-2.18-.66 3.64-1.3 7.3-1.7 9.53-.08.28-.33.47-.6.46zm2.6-11.73c.62 1.38 1.86 2.4 3.34 2.7l5.96-.17c1.4-.55 2.46-1.7 2.92-3.15l1.64-10.12c.17-1.13-1.54-2.34-2.24-2.34h-6.5c-1.5.6-2.7 1.78-3.33 3.3-.1.46-.92 4.9-1.8 9.78z"/><path d="M36.23 8.25c0 .93-.74 1.68-1.66 1.68-.93 0-1.67-.75-1.67-1.68 0-.94.74-1.7 1.67-1.7.92 0 1.66.76 1.66 1.7z"/><ellipse cx="30.837" cy="2.567" rx="1.654" ry="1.671"/><path d="M28.73 8.25c0 .93-.75 1.68-1.67 1.68-.92 0-1.67-.75-1.67-1.68 0-.94.74-1.7 1.66-1.7.92 0 1.67.76 1.67 1.7z"/><ellipse cx="34.39" cy="31.011" rx="1.654" ry="1.671"/><ellipse cx="30.828" cy="25.674" rx="1.654" ry="1.671"/><ellipse cx="23.526" cy="25.674" rx="1.369" ry="1.384"/><path d="M28.54 31c0 .57-.33 1.08-.84 1.3-.5.2-1.1.1-1.5-.3-.38-.4-.5-1-.3-1.52.22-.5.72-.85 1.28-.85.75 0 1.36.62 1.36 1.38z"/><ellipse cx="23.429" cy="36.867" rx="1.369" ry="1.384"/><ellipse cx="19.891" cy="31.011" rx="1.061" ry="1.072"/><ellipse cx="6.856" cy="19.809" rx="1.061" ry="1.072"/><ellipse cx="8.751" cy="14.101" rx="1.061" ry="1.072"/><path d="M13.4 8.25c0 .6-.47 1.07-1.05 1.07-.6 0-1.07-.48-1.07-1.07 0-.6.48-1.08 1.07-1.08.58 0 1.06.48 1.06 1.08z"/><path d="M17.05 2.7c0 .43-.26.82-.65.98-.4.17-.86.08-1.16-.23-.3-.3-.4-.77-.23-1.17.18-.4.56-.66 1-.66.58 0 1.05.48 1.05 1.07z"/><ellipse cx="16.091" cy="36.867" rx="1.061" ry="1.072"/><ellipse cx="12.45" cy="31.011" rx="1.061" ry="1.072"/><ellipse cx="8.701" cy="25.674" rx="1.061" ry="1.072"/><ellipse cx="6.701" cy="31.011" rx="1" ry="1"/><ellipse cx="3.286" cy="25.674" rx="1" ry="1"/><path d="M1.73 19.7c0 .24-.13.44-.34.52-.2.1-.45.04-.6-.12-.16-.16-.2-.4-.12-.6.08-.2.28-.34.5-.34.3 0 .55.25.55.55z"/><ellipse cx="3.132" cy="14.11" rx="1" ry="1"/><ellipse cx="6.826" cy="8.299" rx="1" ry="1"/><ellipse cx="16.041" cy="25.674" rx="1.369" ry="1.384"/><ellipse cx="12.192" cy="19.822" rx="1.369" ry="1.384"/><path d="M17.36 14.1c0 .56-.33 1.07-.84 1.3-.52.2-1.1.1-1.5-.3-.4-.4-.5-1-.3-1.52s.7-.86 1.27-.85c.74 0 1.35.6 1.36 1.37z"/><ellipse cx="19.785" cy="8.245" rx="1.369" ry="1.384"/><ellipse cx="23.379" cy="2.592" rx="1.369" ry="1.384"/><ellipse cx="19.69" cy="19.823" rx="1.654" ry="1.671"/><ellipse cx="23.381" cy="14.101" rx="1.654" ry="1.671"/><ellipse cx="30.828" cy="36.867" rx="1.654" ry="1.671"/><path d="M20.53 19.23H45v1.03H20.54z"/><path d="M24.6 13.6h7.7v1h-7.7z"/><path d="M35.6 20.2l-4.23-6.62h1.2l4.22 6.62z"/><path d="M32.12 25.16h3.93v1.03h-3.93z"/><path d="M35.1 26.2l3.52-6h1l-3.5 6z"/></g></g></g></g></g></g></g></svg>
